;FLAVOR:UltiGCode
;TIME:5783
;MATERIAL:5548
;MATERIAL2:0
;NOZZLE_DIAMETER:0.4
;MINX:99.911
;MINY:86.22
;MINZ:0.27
;MAXX:123.09
;MAXY:136.766
;MAXZ:59.97
;TARGET_MACHINE.NAME:Ultimaker 2+
;Generated with Cura_SteamEngine 5.9.1
M82 ;absolute extrusion mode
G0 F3000 Y50 ;avoid prime blob
G92 E0
G92 E0
G10
;LAYER_COUNT:598
;LAYER:0
M107
G0 F7200 X114.715 Y136.641 Z0.27
;TYPE:SKIRT
G11
G1 F1800 X113.814 Y136.766 E0.09824
G1 X112.438 Y136.76 E0.24685
G1 X108.944 Y136.677 E0.62431
G1 X108.242 Y136.649 E0.70018
G1 X107.634 Y136.583 E0.76623
G1 X105.88 Y136.196 E0.96022
G1 X105.307 Y136.016 E1.02509
G1 X104.8 Y135.763 E1.08628
G1 X104.336 Y135.432 E1.14784
G1 X103.931 Y135.031 E1.20939
G1 X103.596 Y134.574 E1.27059
G1 X103.36 Y134.127 E1.32518
G1 X103.118 Y133.422 E1.40568
G1 X102.791 Y130.577 E1.71496
G1 X102.398 Y127.839 E2.0137
G1 X101.966 Y125.258 E2.29632
G1 X101.844 Y124.233 E2.4078
G1 X101.721 Y123.023 E2.53916
G1 X101.372 Y120.333 E2.83211
G1 X100.947 Y117.654 E3.12506
G1 X100.441 Y114.955 E3.42163
G1 X99.997 Y112.829 E3.6562
G1 X99.922 Y112.158 E3.72911
G1 X99.911 Y111.488 E3.80148
G1 X99.928 Y110.539 E3.90399
G1 X100.06 Y109.732 E3.99231
G1 X100.635 Y106.953 E4.2988
G1 X101.111 Y104.296 E4.59032
G1 X101.513 Y101.606 E4.88407
G1 X101.944 Y97.895 E5.28755
G1 X102.116 Y96.787 E5.40865
G1 X102.295 Y95.735 E5.52389
G1 X102.665 Y93.111 E5.81009
G1 X102.85 Y91.366 E5.99961
G1 X102.882 Y91.19 E6.01893
G1 X103.029 Y89.89 E6.16022
G1 X103.142 Y89.333 E6.2216
G1 X103.341 Y88.8 E6.28305
G1 X103.622 Y88.306 E6.34443
G1 X103.977 Y87.861 E6.40591
G1 X104.398 Y87.479 E6.4673
G1 X104.992 Y87.082 E6.54446
G1 X106.088 Y86.673 E6.6708
G1 X106.824 Y86.421 E6.75482
G1 X107.524 Y86.241 E6.83288
G1 X108.843 Y86.22 E6.97535
G1 X113.606 Y86.221 E7.48976
G1 X114.3 Y86.231 E7.56472
G1 X114.975 Y86.299 E7.63798
G1 X115.839 Y86.529 E7.73455
G1 X117.001 Y86.871 E7.86537
G1 X117.56 Y87.09 E7.9302
G1 X118.05 Y87.378 E7.99159
G1 X118.442 Y87.696 E8.0461
G1 X118.864 Y88.166 E8.11432
G1 X119.168 Y88.647 E8.17578
G1 X119.393 Y89.173 E8.23756
G1 X119.538 Y89.751 E8.30192
G1 X120.017 Y92.72 E8.62672
G1 X120.54 Y95.447 E8.9266
G1 X121.031 Y97.696 E9.17522
G1 X121.179 Y98.982 E9.31502
G1 X121.247 Y99.668 E9.38947
G1 X121.598 Y102.402 E9.68717
G1 X122.016 Y105.069 E9.97872
G1 X122.525 Y107.798 E10.27853
G1 X123.009 Y110.124 E10.53512
G1 X123.077 Y110.732 E10.6012
G1 X123.09 Y111.648 E10.70013
G1 X123.079 Y112.358 E10.77682
G1 X122.999 Y113.057 E10.85281
G1 X122.752 Y114.208 E10.97995
G1 X122.215 Y116.897 E11.27609
G1 X121.757 Y119.577 E11.56973
G1 X121.378 Y122.255 E11.86183
G1 X121.057 Y125.1 E12.17104
G1 X120.79 Y126.774 E12.35412
G1 X120.4 Y129.513 E12.65292
G1 X120.031 Y132.82 E13.01229
G1 X119.914 Y133.409 E13.07714
G1 X119.715 Y133.941 E13.13849
G1 X119.435 Y134.437 E13.2
G1 X119.017 Y134.97 E13.27316
G1 X118.302 Y135.564 E13.37355
G1 X117.835 Y135.888 E13.43493
G1 X117.317 Y136.136 E13.49696
G1 X116.599 Y136.342 E13.57763
G1 X114.715 Y136.641 E13.78365
G0 F7200 X114.658 Y136.245
G1 F1800 X113.816 Y136.366 E13.87552
G1 X112.448 Y136.36 E14.02327
G1 X108.959 Y136.277 E14.40018
G1 X108.284 Y136.251 E14.47314
G1 X107.72 Y136.192 E14.53438
G1 X105.966 Y135.805 E14.72837
G1 X105.483 Y135.657 E14.78293
G1 X105.029 Y135.435 E14.83751
G1 X104.615 Y135.145 E14.8921
G1 X104.252 Y134.792 E14.94678
G1 X103.95 Y134.387 E15.00135
G1 X103.714 Y133.94 E15.05594
G1 X103.51 Y133.333 E15.1251
G1 X103.187 Y130.52 E15.4309
G1 X102.794 Y127.782 E15.72963
G1 X102.363 Y125.211 E16.01117
G1 X102.242 Y124.193 E16.12189
G1 X102.119 Y122.983 E16.25325
G1 X101.769 Y120.282 E16.54739
G1 X101.342 Y117.591 E16.84166
G1 X100.833 Y114.873 E17.1403
G1 X100.389 Y112.747 E17.37487
G1 X100.322 Y112.151 E17.43964
G1 X100.311 Y111.493 E17.51071
G1 X100.323 Y110.603 E17.60684
G1 X100.452 Y109.813 E17.69329
G1 X101.027 Y107.034 E17.99978
G1 X101.505 Y104.367 E18.29241
G1 X101.908 Y101.665 E18.58745
G1 X102.339 Y97.956 E18.99072
G1 X102.51 Y96.854 E19.11116
G1 X102.689 Y95.802 E19.22641
G1 X103.063 Y93.153 E19.51534
G1 X103.248 Y91.408 E19.70485
G1 X103.277 Y91.251 E19.72209
G1 X103.422 Y89.966 E19.86176
G1 X103.518 Y89.47 E19.91632
G1 X103.691 Y88.995 E19.97091
G1 X103.937 Y88.553 E20.02555
G1 X104.249 Y88.155 E20.08016
G1 X104.62 Y87.812 E20.13473
G1 X105.175 Y87.441 E20.20683
G1 X106.218 Y87.051 E20.32709
G1 X106.924 Y86.808 E20.40773
G1 X107.576 Y86.64 E20.48045
G1 X108.843 Y86.62 E20.6173
G1 X113.6 Y86.621 E21.13105
G1 X114.294 Y86.631 E21.20601
G1 X114.872 Y86.686 E21.26872
G1 X115.726 Y86.913 E21.36416
G1 X116.888 Y87.255 E21.49497
G1 X117.36 Y87.436 E21.54957
G1 X117.798 Y87.689 E21.6042
G1 X118.19 Y88.007 E21.65871
G1 X118.528 Y88.383 E21.71332
G1 X118.802 Y88.808 E21.76793
G1 X119.005 Y89.271 E21.82253
G1 X119.143 Y89.815 E21.88314
G1 X119.624 Y92.795 E22.20915
G1 X120.149 Y95.532 E22.51013
G1 X120.64 Y97.781 E22.75874
G1 X120.781 Y99.021 E22.89353
G1 X120.85 Y99.719 E22.96928
G1 X121.201 Y102.453 E23.26697
G1 X121.623 Y105.142 E23.56094
G1 X122.133 Y107.88 E23.86173
G1 X122.611 Y110.168 E24.11417
G1 X122.679 Y110.776 E24.18024
G1 X122.69 Y111.642 E24.27378
G1 X122.679 Y112.352 E24.35047
G1 X122.608 Y112.973 E24.41797
G1 X122.361 Y114.124 E24.54511
G1 X121.823 Y116.819 E24.84191
G1 X121.363 Y119.51 E25.13676
G1 X120.982 Y122.199 E25.43007
G1 X120.662 Y125.037 E25.73852
G1 X120.395 Y126.711 E25.92159
G1 X120.002 Y129.469 E26.22247
G1 X119.633 Y132.776 E26.58184
G1 X119.538 Y133.272 E26.63638
G1 X119.365 Y133.747 E26.69098
G1 X119.12 Y134.19 E26.74565
G1 X118.727 Y134.691 E26.81442
G1 X118.071 Y135.237 E26.9066
G1 X117.658 Y135.529 E26.96122
G1 X117.205 Y135.752 E27.01575
G1 X116.536 Y135.947 E27.09101
G1 X114.658 Y136.245 E27.29637
G10
G0 F7200 X117.094 Y114.253
G0 X117.094 Y108.747
G0 X115.278 Y91.053
G11
G1 F1800 X115.276 Y91.071 E27.29833
G1 X115.274 Y91.092 E27.30061
G1 X107.274 Y91.092 E28.16461
G1 X107.237 Y90.724 E28.20455
G1 X108.082 Y90.42 E28.30154
G1 X114.168 Y90.421 E28.95883
G1 X115.323 Y90.751 E29.08856
G1 X115.278 Y91.053 E29.12153
G0 F7200 X115.63 Y91.492
G1 F1800 X106.912 Y91.492 E30.06308
G1 X106.808 Y90.452 E30.17596
G1 X108.012 Y90.02 E30.31411
G1 X114.226 Y90.021 E30.98522
G1 X115.77 Y90.462 E31.15864
G1 X115.674 Y91.111 E31.22949
G1 X115.673 Y91.117 E31.23015
G1 X115.63 Y91.492 E31.27092
G10
G0 F7200 X117.29 Y98.509
G11
G1 F1800 X117.29 Y106.956 E32.18319
G1 X117.291 Y106.978 E32.18557
G1 X117.382 Y107.797 E32.27457
G1 X117.4 Y107.861 E32.28175
G1 X117.639 Y108.365 E32.34199
G1 X117.66 Y108.399 E32.34631
G1 X117.952 Y108.787 E32.39875
G1 X117.985 Y108.821 E32.40387
G1 X118.558 Y109.293 E32.48404
G1 X118.911 Y109.746 E32.54607
G1 X119.177 Y110.339 E32.61626
G1 X119.289 Y110.842 E32.67191
G1 X119.29 Y112.261 E32.82517
G1 X118.887 Y113.257 E32.94121
G1 X118.568 Y113.62 E32.9934
G1 X117.914 Y114.174 E33.08596
G1 X117.869 Y114.228 E33.09356
G1 X117.452 Y114.959 E33.18445
G1 X117.429 Y115.026 E33.1921
G1 X117.293 Y115.855 E33.28283
G1 X117.29 Y115.887 E33.2863
G1 X117.29 Y124.492 E34.21564
G1 X105.71 Y124.493 E35.46628
G1 X105.71 Y115.555 E36.43158
G1 X105.7 Y115.493 E36.43836
G1 X105.506 Y114.894 E36.50636
G1 X105.49 Y114.858 E36.51062
G1 X105.215 Y114.372 E36.57093
G1 X105.187 Y114.334 E36.57602
G1 X104.824 Y113.945 E36.63349
G1 X104.805 Y113.927 E36.63631
G1 X104.497 Y113.673 E36.67943
G1 X104.151 Y113.311 E36.73351
G1 X103.823 Y112.577 E36.82034
G1 X103.711 Y112.075 E36.87589
G1 X103.71 Y110.855 E37.00765
G1 X103.786 Y110.429 E37.05438
G1 X104.07 Y109.761 E37.13278
G1 X104.356 Y109.351 E37.18676
G1 X105.074 Y108.743 E37.28838
G1 X105.113 Y108.698 E37.29481
G1 X105.402 Y108.248 E37.35257
G1 X105.423 Y108.206 E37.35764
G1 X105.625 Y107.624 E37.42417
G1 X105.634 Y107.585 E37.42849
G1 X105.708 Y107.046 E37.48725
G1 X105.71 Y107.019 E37.49018
G1 X105.71 Y98.509 E38.40926
G1 X107.22 Y98.494 E38.57234
G1 X107.255 Y98.491 E38.57614
G1 X107.973 Y98.356 E38.65504
G1 X107.998 Y98.349 E38.65784
G1 X108.49 Y98.188 E38.71375
G1 X108.515 Y98.178 E38.71666
G1 X109.1 Y97.897 E38.78675
G1 X109.124 Y97.883 E38.78975
G1 X110.111 Y97.225 E38.91787
G1 X110.188 Y97.127 E38.93133
G1 X110.2 Y97.059 E38.93878
G1 X110.2 Y97.01 E38.94408
G1 X112.809 Y97.01 E39.22585
G1 X112.879 Y97.154 E39.24314
G1 X113.537 Y97.665 E39.33312
G1 X113.563 Y97.682 E39.33647
G1 X114.346 Y98.116 E39.43316
G1 X114.385 Y98.133 E39.43775
G1 X115.319 Y98.414 E39.54309
G1 X115.356 Y98.421 E39.54716
G1 X116.189 Y98.507 E39.6376
G1 X116.21 Y98.508 E39.63987
G1 X117.29 Y98.509 E39.75651
G0 F7200 X116.89 Y98.909
G1 F1800 X116.89 Y106.956 E40.62559
G1 X116.894 Y107.022 E40.63273
G1 X116.901 Y107.089 E40.64
G1 X116.764 Y106.983 E40.65871
G1 X116.49 Y106.917 E40.68915
G1 X106.51 Y106.918 E41.76699
G1 X106.295 Y106.958 E41.79061
G1 X106.109 Y107.071 E41.81411
G1 X106.106 Y107.075 E41.81465
G1 X106.11 Y107.019 E41.82071
G1 X106.11 Y98.905 E42.69703
G1 X107.224 Y98.894 E42.81734
G1 X107.329 Y98.884 E42.82874
G1 X108.047 Y98.749 E42.90764
G1 X108.123 Y98.729 E42.91613
G1 X108.615 Y98.568 E42.97203
G1 X108.688 Y98.539 E42.98052
G1 X109.273 Y98.258 E43.05061
G1 X109.346 Y98.216 E43.0597
G1 X110.333 Y97.558 E43.18782
G1 X110.485 Y97.41 E43.21073
G1 X112.59 Y97.41 E43.43807
G1 X112.634 Y97.47 E43.4461
G1 X113.292 Y97.981 E43.53608
G1 X113.369 Y98.032 E43.54606
G1 X114.152 Y98.466 E43.64274
G1 X114.27 Y98.516 E43.65658
G1 X115.204 Y98.797 E43.76192
G1 X115.315 Y98.819 E43.77414
G1 X116.148 Y98.905 E43.86458
G1 X116.21 Y98.908 E43.87129
G1 X116.89 Y98.909 E43.94473
G0 F7200 X116.49 Y99.308
G1 F1800 X116.49 Y106.517 E44.7233
G1 X106.51 Y106.518 E45.80114
G1 X106.51 Y99.301 E46.58058
G1 X107.228 Y99.294 E46.65812
G1 X107.403 Y99.277 E46.67711
G1 X108.121 Y99.142 E46.75601
G1 X108.247 Y99.109 E46.77008
G1 X108.739 Y98.948 E46.82599
G1 X108.861 Y98.899 E46.84019
G1 X109.446 Y98.618 E46.91028
G1 X109.568 Y98.549 E46.92542
G1 X110.555 Y97.891 E47.05353
G1 X110.645 Y97.81 E47.06661
G1 X112.42 Y97.81 E47.25831
G1 X113.047 Y98.297 E47.34405
G1 X113.175 Y98.382 E47.36064
G1 X113.958 Y98.816 E47.45733
G1 X114.155 Y98.899 E47.48042
G1 X115.089 Y99.18 E47.58576
G1 X115.274 Y99.217 E47.60613
G1 X116.107 Y99.303 E47.69657
G1 X116.209 Y99.308 E47.7076
G1 X116.49 Y99.308 E47.73795
G10
G0 F7200 X117.31 Y108.731
G11
G1 F1800 X117.271 Y108.612 E47.75147
G1 X117.11 Y108.531 E47.77094
G1 X116.69 Y108.531 E47.8163
G1 X116.69 Y107.517 E47.92581
G1 X116.651 Y107.398 E47.93934
G1 X116.49 Y107.317 E47.9588
G1 X106.51 Y107.318 E49.03664
G1 X106.391 Y107.357 E49.05017
G1 X106.31 Y107.518 E49.06963
G1 X106.31 Y108.532 E49.17914
G1 X105.89 Y108.532 E49.2245
G1 X105.771 Y108.571 E49.23803
G1 X105.69 Y108.732 E49.25749
G1 X105.69 Y114.27 E49.85559
G1 X105.729 Y114.389 E49.86912
G1 X105.89 Y114.47 E49.88858
G1 X106.31 Y114.47 E49.93394
G1 X106.31 Y115.483 E50.04335
G1 X106.349 Y115.602 E50.05687
G1 X106.51 Y115.683 E50.07634
G1 X116.49 Y115.682 E51.15418
G1 X116.609 Y115.643 E51.1677
G1 X116.69 Y115.482 E51.18717
G1 X116.69 Y114.469 E51.29657
G1 X117.11 Y114.469 E51.34193
G1 X117.229 Y114.43 E51.35546
G1 X117.31 Y114.269 E51.37492
G1 X117.31 Y108.731 E51.97302
G0 F7200 X118.273 Y109.577
G1 F1800 X118.566 Y109.953 E52.02451
G1 X118.794 Y110.462 E52.08474
G1 X118.889 Y110.888 E52.13188
G1 X118.89 Y112.183 E52.27174
G1 X118.542 Y113.044 E52.37203
G1 X118.286 Y113.335 E52.41389
G1 X117.71 Y113.822 E52.49536
G1 X117.71 Y109.109 E53.00436
G1 X117.73 Y109.13 E53.00749
G1 X118.273 Y109.577 E53.08345
G0 F7200 X118.489 Y110.931
G1 F1800 X118.49 Y112.105 E53.21024
G1 X118.196 Y112.83 E53.29474
G1 X118.11 Y112.928 E53.30882
G1 X118.11 Y110.018 E53.6231
G1 X118.22 Y110.16 E53.6425
G1 X118.413 Y110.591 E53.6935
G1 X118.489 Y110.931 E53.73112
G10
G0 F7200 X116.89 Y115.93
G11
G1 F1800 X116.89 Y124.092 E54.61262
G1 X106.11 Y124.093 E55.77686
G1 X106.11 Y115.92 E56.65954
G1 X106.236 Y116.017 E56.67672
G1 X106.51 Y116.083 E56.70716
G1 X116.49 Y116.082 E57.785
G1 X116.705 Y116.042 E57.80861
G1 X116.89 Y115.93 E57.83197
G0 F7200 X116.49 Y116.482
G1 F1800 X116.49 Y123.692 E58.61065
G1 X106.51 Y123.693 E59.68849
G1 X106.51 Y116.483 E60.46717
G1 X116.49 Y116.482 E61.54501
G10
G0 F7200 X105.906 Y114.254
G0 X105.29 Y113.857
G11
G1 F1800 X105.117 Y113.672 E61.57237
G1 X105.06 Y113.618 E61.58085
G1 X104.764 Y113.373 E61.62234
G1 X104.488 Y113.085 E61.66542
G1 X104.206 Y112.454 E61.74007
G1 X104.111 Y112.028 E61.78721
G1 X104.11 Y110.892 E61.90989
G1 X104.173 Y110.541 E61.94841
G1 X104.421 Y109.957 E62.01693
G1 X104.654 Y109.623 E62.06091
G1 X105.29 Y109.084 E62.15095
G1 X105.29 Y113.857 E62.66643
G0 F7200 X104.89 Y112.927
G1 F1800 X104.825 Y112.859 E62.67659
G1 X104.587 Y112.327 E62.73954
G1 X104.511 Y111.986 E62.77727
G1 X104.51 Y110.923 E62.89207
G1 X104.557 Y110.66 E62.92093
G1 X104.773 Y110.151 E62.98064
G1 X104.89 Y109.984 E63.00267
G1 X104.89 Y112.927 E63.32051
G0 F7200 X105.91 Y108.132
G1 F1800 X105.89 Y108.132 E63.32267
G1 X105.871 Y108.136 E63.32477
G1 X105.91 Y108.023 E63.33768
G1 X105.91 Y108.132 E63.34945
G10
G0 F7200 X105.906 Y114.254
G0 X113.489 Y132.584
G11
G1 F1800 X108.459 Y132.463 E63.89285
G1 X107.273 Y132.208 E64.02386
G1 X107.288 Y131.908 E64.0563
G1 X115.801 Y131.908 E64.97571
G1 X115.831 Y132.166 E65.00376
G1 X115.767 Y132.222 E65.01294
G1 X113.489 Y132.584 E65.26205
G0 F7200 X113.516 Y132.985
G1 F1800 X108.413 Y132.862 E65.81334
G1 X106.856 Y132.527 E65.98534
G1 X106.9 Y131.679 E66.07705
G1 X106.931 Y131.657 E66.08115
G1 X106.963 Y131.586 E66.08957
G1 X106.982 Y131.508 E66.09824
G1 X116.144 Y131.508 E67.08773
G1 X116.199 Y131.772 E67.11686
G1 X116.197 Y131.784 E67.11817
G1 X116.195 Y131.84 E67.12422
G1 X116.253 Y132.33 E67.17751
G1 X115.942 Y132.599 E67.22192
G1 X113.516 Y132.985 E67.48722
G10
G0 F7200 X105.906 Y114.254
G0 X105.906 Y108.748
G0 X109.347 Y99.109
;TYPE:SUPPORT
G11
G1 F1800 X109.347 Y106.118 E68.2442
G1 X106.91 Y106.118 E68.50739
G1 X106.91 Y104.013 E68.73473
G1 X116.09 Y104.013 E69.72617
G1 X116.09 Y101.346 E70.01421
G1 X106.91 Y101.346 E71.00565
G1 X106.91 Y99.697 E71.18374
G1 X107.356 Y99.693 E71.23191
G1 X108.285 Y99.518 E71.33401
G1 X108.951 Y99.3 E71.40969
G1 X109.708 Y98.936 E71.50041
G1 X110.094 Y98.679 E71.55049
G1 X112.887 Y98.679 E71.85213
G1 X113.896 Y99.238 E71.97671
G1 X114.681 Y99.475 E72.06527
G1 X114.681 Y106.118 E72.78271
G1 X112.014 Y106.118 E73.07075
G1 X112.014 Y98.21 E73.92481
G1 X112.282 Y98.21 E73.95376
G10
G0 F7200 X117.094 Y108.747
G0 X117.094 Y114.253
G0 X112.282 Y116.88
G11
G1 F1800 X106.908 Y116.88 E74.53415
G1 X106.908 Y123.292 E75.22665
G1 X116.088 Y123.292 E76.21809
G1 X116.088 Y116.88 E76.91058
G1 X112.282 Y116.88 E77.32163
G0 F7200 X114.681 Y117.24
G1 F1800 X114.681 Y122.932 E77.93637
G1 X115.728 Y122.932 E78.04944
G1 X115.728 Y122.682 E78.07644
G1 X107.268 Y122.682 E78.99012
G1 X107.268 Y120.015 E79.27816
G1 X115.728 Y120.015 E80.19184
G1 X115.728 Y117.348 E80.47987
G1 X107.268 Y117.348 E81.39355
G1 X107.268 Y117.24 E81.40522
G1 X109.347 Y117.24 E81.62975
G1 X109.347 Y122.932 E82.24449
G1 X112.014 Y122.932 E82.53252
G1 X112.014 Y117.24 E83.14726
G1 X115.728 Y117.24 E83.54837
;MESH:FugelsangC.STL.stl
G0 F7200 X116.209 Y114.265
G0 X116.208 Y113.368
;TYPE:WALL-OUTER
G1 F1800 X116.208 Y109.628 E83.99268
G1 X106.788 Y109.632 E85.11178
G1 X106.788 Y113.368 E85.55562
G1 X116.208 Y113.368 E86.67471
G0 F7200 X116.208 Y113.168
G0 X115.808 Y112.968
;TYPE:WALL-INNER
G1 F1800 X115.808 Y110.028 E86.97636
G1 X107.188 Y110.032 E87.86077
G1 X107.188 Y112.968 E88.162
G1 X115.808 Y112.968 E89.04641
G0 F7200 X115.488 Y112.648
;TYPE:SKIN
G1 F1200 X115.488 Y110.348 E89.27059
G1 X107.508 Y110.352 E90.04841
G1 X107.508 Y112.648 E90.2722
G1 X115.488 Y112.648 E91.05001
G0 F7200 X115.074 Y110.548
G1 F1200 X115.288 Y110.763 E91.07957
G0 F7200 X115.288 Y111.328
G1 F1200 X114.508 Y110.548 E91.18709
G0 F7200 X113.943 Y110.549
G1 F1200 X115.288 Y111.894 E91.37249
G0 F7200 X115.277 Y112.448
G1 F1200 X113.378 Y110.549 E91.63426
G0 F7200 X112.812 Y110.549
G1 F1200 X114.711 Y112.448 E91.89602
G0 F7200 X114.145 Y112.448
G1 F1200 X112.247 Y110.55 E92.15765
G0 F7200 X111.681 Y110.55
G1 F1200 X113.58 Y112.448 E92.41934
